src/assets/images/gun.svg

<?xml version="1.0" encoding="UTF-8"?>
<svg width="884px" height="380px" viewBox="0 0 884 380" version="1.1" xmlns="http://www.w3.org/2000/svg" xmlns:xlink="http://www.w3.org/1999/xlink">
    <!-- Generator: Sketch 55.2 (78181) - https://sketchapp.com -->
    <title>Group</title>
    <desc>Created with Sketch.</desc>
    <defs>
        <linearGradient x1="50.0018157%" y1="100.150376%" x2="50.0018157%" y2="0.0501253133%" id="linearGradient-1">
            <stop stop-color="#2B2A29" offset="0%"></stop>
            <stop stop-color="#C8C3BE" offset="49.02%"></stop>
            <stop stop-color="#2B2A29" offset="100%"></stop>
        </linearGradient>
        <rect id="path-2" x="20" y="52.5738868" width="382" height="16" rx="2.73900508"></rect>
    </defs>
    <g id="Page-1" stroke="none" stroke-width="1" fill="none" fill-rule="evenodd">
        <g id="Artboard" transform="translate(-26.000000, -63.000000)">
            <g id="Group" transform="translate(26.000000, 63.000000)">
                <g id="pistol-1686696">
                    <path d="M20.6051207,61.5738868 L314,61.5738868 C308.125191,114.608824 291.580692,166.931039 291.796677,220.636774 C292.012663,274.384434 308.254782,326.622799 314,379.573887 C265.100853,374.459055 216.244904,359.743432 167.259363,359.198409 C118.273822,358.653386 69.4610701,374.081731 20.6051207,379.573887 C15.2054799,326.622799 -0.0431055356,274.258659 0,220.636774 C0,166.972964 15.2054799,114.608824 20.6051207,61.5738868 Z" id="Path" fill="#000000"></path>
                    <path d="M28.3744076,63.7775432 C73.7984388,63.7368119 119.22247,63.5738868 164.646501,63.5738868 C210.070532,63.5738868 255.494564,63.7368119 300.959297,63.7775432 C295.138835,114.2436 279.916086,164.098688 280.119599,215.175715 C280.323111,266.334204 295.260942,316.10783 301,366.573887 C255.535266,361.401014 210.19264,347.552379 164.646501,346.982141 C119.141065,346.452634 73.7577363,361.034433 28.333705,366.573887 C23.0016727,316.148561 9,266.252741 9,215.216446 C9.04070254,164.13942 23.0016727,114.2436 28.3744076,63.7775432 Z" id="Path" fill="#FEFEFE"></path>
                    <g id="Rectangle">
                        <use fill="url(#linearGradient-1)" xlink:href="#path-2"></use>
                        <use fill="#000000" xlink:href="#path-2"></use>
                    </g>
                    <path d="M794.127574,16.4194753 L812.699193,17.356361 C815.753736,25.8698007 816.568281,34.7091136 826.627908,35.6459993 C837.379898,36.6643533 844.42571,30.5542292 852.856247,39.3935421 C853.467156,49.3326773 842.755893,54.2207766 837.78717,59.1496101 C814.898464,82.2051451 840.88244,90.8407872 854.851882,99.5578976 C862.712238,104.445997 873.952955,107.378857 873.219865,119.232497 C861.042422,124.853812 853.304247,121.106269 841.411894,124.853812 C830.944995,128.07181 824.998819,134.222669 821.333367,143.469323 C817.627189,152.634509 815.427918,165.302833 819.37846,175.079032 C829.152997,198.989984 843.407529,174.67169 875.867135,311.171863 C895.090391,391.866236 883.32022,378.79057 807.038108,378.79057 L769.569051,378.79057 C757.432335,378.79057 741.833804,382.415911 739.227261,370.399333 C735.398901,352.883644 742.159622,353.290986 728.515998,303.473107 L702.206204,215.935395 C692.024395,188.887912 610.203379,236.872754 552.248523,181.189156 C531.396179,161.147949 541.25217,148.153752 527.852909,129.212367 C506.837656,99.4764293 446.96862,122.246825 430.75918,111.248602 C423.224642,106.116098 425.953366,107.175186 415.364285,107.256654 L357.205793,107.256654 C345.272713,107.297388 330,108.519413 330,95.6474182 C330.122182,66.6854298 330,37.845644 330,8.92438975 C330,4.32142958 333.746906,0.573886779 338.349083,0.573886779 L351.015253,0.573886779 C355.617431,0.573886779 357.24652,4.85097367 359.364337,8.92438975 L364.821786,19.4338033 L774.700683,16.6231462 C776.451954,13.0792742 779.75086,5.58418856 784.353038,4.32142958 C792.987212,1.95884825 791.806122,10.5944903 794.127574,16.4194753 Z M602.180114,173.531134 C614.235376,174.549488 622.951004,169.376249 629.915361,164.080808 C637.612809,158.215089 641.889168,149.783118 640.667351,137.236996 C657.406245,142.084362 684.449129,174.264349 649.179343,188.521305 C623.88773,198.786313 592.201941,188.521305 574.24123,175.934449 C549.682708,158.663165 552.981614,130.597328 589.921216,126.646115 C612.076832,124.324267 617.371373,126.40171 620.263006,144.080335 C623.928458,167.054402 605.723383,160.903544 602.180114,173.531134 Z" id="Shape" fill="#000000"></path>
                </g>
                <g id="Logo-Mia" transform="translate(46.000000, 111.000000)" fill-rule="nonzero">
                    <circle id="Oval" stroke="#CF3776" stroke-width="14" fill="#CF3776" cx="102" cy="102" r="102"></circle>
                    <circle id="Oval" stroke="#FFFFFF" stroke-width="14" fill="#FFFFFF" cx="103" cy="101" r="72"></circle>
                    <polygon id="Path" fill="#000000" points="54 124.135747 69.7616927 131 106.289532 51.6900452 117 18.6210407 82.9977728 8 72.2873051 46.0780543"></polygon>
                    <polygon id="Path" fill="#000000" points="50 130 57.1090909 144.150743 73 146.433121 61.5232323 157.434183 64.2181818 173 50 165.650743 35.7818182 173 38.5232323 157.434183 27 146.433121 42.8909091 144.150743"></polygon>
                    <polygon id="Path" fill="#000000" points="111 144.135747 126.773403 151 163.281575 71.6900452 174 38.5746606 139.972511 28 129.254086 66.0780543"></polygon>
                    <polygon id="Path" fill="#000000" points="106 150 113.109091 164.165781 129 166.450584 117.476768 177.463337 120.218182 193 106 185.688629 91.7818182 193 94.4767677 177.463337 83 166.450584 98.8909091 164.165781"></polygon>
                </g>
            </g>
        </g>
    </g>
</svg>

<svg width="884" height="380" xmlns="http://www.w3.org/2000/svg" xmlns:xlink="http://www.w3.org/1999/xlink"><defs><linearGradient x1="50.002%" y1="100.15%" x2="50.002%" y2=".05%" id="a"><stop stop-color="#2B2A29" offset="0%"/><stop stop-color="#C8C3BE" offset="49.02%"/><stop stop-color="#2B2A29" offset="100%"/></linearGradient><rect id="b" x="20" y="52.574" width="382" height="16" rx="2.739"/></defs><g fill="none" fill-rule="evenodd"><path d="M20.605 61.574H314c-5.875 53.035-22.42 105.357-22.203 159.063.216 53.747 16.458 105.986 22.203 158.937-48.9-5.115-97.755-19.83-146.74-20.376-48.986-.545-97.799 14.884-146.655 20.376C15.205 326.623-.043 274.259 0 220.637c0-53.664 15.205-106.028 20.605-159.063z" fill="#000"/><path d="M28.374 63.778c45.424-.041 90.848-.204 136.273-.204 45.424 0 90.848.163 136.312.204-5.82 50.466-21.043 100.32-20.84 151.398.204 51.158 15.142 100.932 20.881 151.398-45.465-5.173-90.807-19.022-136.353-19.592-45.506-.53-90.89 14.052-136.313 19.592C23.002 316.149 9 266.253 9 215.216c.04-51.077 14.002-100.972 19.374-151.438z" fill="#FEFEFE"/><g><use fill="url(#a)" xlink:href="#b"/><use fill="#000" xlink:href="#b"/></g><path d="M794.128 16.42l18.571.936c3.055 8.514 3.87 17.353 13.929 18.29 10.752 1.018 17.798-5.092 26.228 3.748.611 9.939-10.1 14.827-15.069 19.756-22.889 23.055 3.095 31.69 17.065 40.408 7.86 4.888 19.101 7.82 18.368 19.674-12.178 5.622-19.916 1.874-31.808 5.622-10.467 3.218-16.413 9.369-20.079 18.615-3.706 9.166-5.905 21.834-1.955 31.61 9.775 23.911 24.03-.407 56.49 136.093 19.222 80.694 7.452 67.619-68.83 67.619H769.57c-12.137 0-27.735 3.625-30.342-8.392-3.828-17.515 2.933-17.108-10.711-66.926l-26.31-87.538c-10.182-27.047-92.003 20.938-149.957-34.746-20.853-20.041-10.997-33.035-24.396-51.977-21.015-29.736-80.884-6.965-97.094-17.963-7.534-5.133-4.806-4.074-15.395-3.992h-58.158c-11.933.04-27.206 1.262-27.206-11.61.122-28.962 0-57.801 0-86.723 0-4.603 3.747-8.35 8.35-8.35h12.665c4.602 0 6.232 4.277 8.35 8.35l5.457 10.51 409.879-2.81c1.751-3.545 5.05-11.04 9.652-12.303 8.634-2.362 7.453 6.273 9.775 12.098zM602.18 173.53c12.055 1.018 20.771-4.155 27.735-9.45 7.698-5.866 11.974-14.298 10.752-26.844 16.74 4.847 43.782 37.027 8.512 51.284-25.291 10.265-56.977 0-74.938-12.587-24.558-17.27-21.26-45.337 15.68-49.288 22.156-2.322 27.45-.244 30.342 17.434 3.665 22.974-14.54 16.824-18.083 29.451z" fill="#000"/><g transform="translate(46 111)" fill-rule="nonzero"><circle stroke="#CF3776" stroke-width="14" fill="#CF3776" cx="102" cy="102" r="102"/><circle stroke="#FFF" stroke-width="14" fill="#FFF" cx="103" cy="101" r="72"/><path fill="#000" d="M54 124.136L69.762 131l36.528-79.31L117 18.621 82.998 8l-10.71 38.078zM50 130l7.11 14.15L73 146.434l-11.477 11.001L64.218 173 50 165.65 35.782 173l2.741-15.566-11.523-11 15.89-2.283zM111 144.136L126.773 151l36.509-79.31L174 38.575 139.973 28l-10.719 38.078zM106 150l7.11 14.166L129 166.45l-11.523 11.012L120.218 193 106 185.689 91.782 193l2.695-15.537L83 166.451l15.89-2.285z"/></g></g></svg>
